findly-builder/apps/searchassist/src/assets/icons/dropdown_gray.svg

<svg width="10" height="6" viewBox="0 0 10 6" fill="none" xmlns="http://www.w3.org/2000/svg">
<path fill-rule="evenodd" clip-rule="evenodd" d="M5 5.5625C5.15234 5.5625 5.28418 5.50684 5.39551 5.39551L9.33301 1.45801C9.44434 1.34668 9.5 1.21484 9.5 1.0625C9.5 0.910156 9.44434 0.77832 9.33301 0.666992C9.22168 0.555664 9.08984 0.5 8.9375 0.5H1.0625C0.910156 0.5 0.77832 0.555664 0.666992 0.666992C0.555664 0.77832 0.5 0.910156 0.5 1.0625C0.5 1.21484 0.555664 1.34668 0.666992 1.45801L4.60449 5.39551C4.71582 5.50684 4.84766 5.5625 5 5.5625Z" fill="#9AA0A6"/>
</svg>

<svg width="10" height="6" fill="none" xmlns="http://www.w3.org/2000/svg"><path fill-rule="evenodd" clip-rule="evenodd" d="M5 5.563a.54.54 0 0 0 .396-.167l3.937-3.938a.54.54 0 0 0 .167-.395.54.54 0 0 0-.167-.396A.54.54 0 0 0 8.937.5H1.064a.54.54 0 0 0-.396.167.54.54 0 0 0-.167.395.54.54 0 0 0 .167.396l3.937 3.938A.54.54 0 0 0 5 5.563Z" fill="#9AA0A6"/></svg>
